X: 9155
T: Dalaigh's
R: polka
M: 2/4
K: Adorian
|:g/f/|eA BA|eA BA|eA c/B/A|G>A Bd|
eA BA|eA B>A|G>A B/c/d|BA A:|
|:d|e>d ef|ga gf|e>d e/f/g|ab/a/ gf|
e>d d/e/f|g2 g>e|dB gB|A2- A:|

